src/view/frontend/web/svg/heroicons/solid/terminal.svg

<svg viewBox="0 0 20 20" fill="currentColor" xmlns="http://www.w3.org/2000/svg">
<path fill-rule="evenodd" clip-rule="evenodd" d="M2 5C2 3.89543 2.89543 3 4 3H16C17.1046 3 18 3.89543 18 5V15C18 16.1046 17.1046 17 16 17H4C2.89543 17 2 16.1046 2 15V5ZM5.29289 6.29289C5.68342 5.90237 6.31658 5.90237 6.70711 6.29289L9.70711 9.29289C10.0976 9.68342 10.0976 10.3166 9.70711 10.7071L6.70711 13.7071C6.31658 14.0976 5.68342 14.0976 5.29289 13.7071C4.90237 13.3166 4.90237 12.6834 5.29289 12.2929L7.58579 10L5.29289 7.70711C4.90237 7.31658 4.90237 6.68342 5.29289 6.29289ZM11 12C10.4477 12 10 12.4477 10 13C10 13.5523 10.4477 14 11 14H14C14.5523 14 15 13.5523 15 13C15 12.4477 14.5523 12 14 12H11Z" />
</svg>

<svg xmlns="http://www.w3.org/2000/svg" viewBox="0 0 20 20" fill="currentColor">
  <path fill-rule="evenodd" d="M2 5a2 2 0 012-2h12a2 2 0 012 2v10a2 2 0 01-2 2H4a2 2 0 01-2-2V5zm3.293 1.293a1 1 0 011.414 0l3 3a1 1 0 010 1.414l-3 3a1 1 0 01-1.414-1.414L7.586 10 5.293 7.707a1 1 0 010-1.414zM11 12a1 1 0 100 2h3a1 1 0 100-2h-3z" clip-rule="evenodd"/>
</svg>
